X: 14019
T: Frank's
R: reel
M: 4/4
K: Gmajor
L:1/8
M:6/8
K:G
|:GBG E2 D|DEG BAB|c2 e dBG|egB A2 A|
GBG E2 D|DEG BAB|cde dBG|DEF G2 G:|
|:g2 g f2 f|ege dBG|c2 e dBG|ABc def|
g2 g f2 f|ege dBG|c2 e dBG|DEF G3:|

